icons/mobile/24/svg/lightning-24.svg

<svg width="24" height="24" viewBox="0 0 24 24" fill="none" xmlns="http://www.w3.org/2000/svg">
<path fill-rule="evenodd" clip-rule="evenodd" d="M8.63194 3.75C8.47042 3.75 8.32678 3.85047 8.27139 4.00142L5.79151 10.7681C5.672 11.0939 5.91305 11.44 6.26094 11.44H9.64094C9.89461 11.44 10.1358 11.5501 10.302 11.7417C10.4682 11.9333 10.543 12.1877 10.5071 12.4388L9.51959 19.3493L18.1669 10.4677C18.1669 10.4677 18.167 10.4677 18.1669 10.4677C18.3214 10.3089 18.2085 10.043 17.9879 10.043H12.7879C12.4976 10.043 12.2261 9.89897 12.0634 9.65854C11.9006 9.4181 11.8677 9.11258 11.9755 8.843L13.7383 4.4365C13.7383 4.4366 13.7384 4.4364 13.7383 4.4365C13.8698 4.10684 13.6276 3.75 13.2739 3.75H8.63194ZM6.6285 3.39858C6.93711 2.55753 7.73747 2 8.63194 2H13.2739C14.8662 2 15.9539 3.60724 15.3635 5.0855L14.0804 8.293H17.9879C19.7573 8.293 20.6544 10.4211 19.421 11.6883L9.63887 21.7354C9.47416 21.9046 9.24806 22 9.01194 22H8.38194C8.12828 22 7.8871 21.8899 7.72091 21.6983C7.55471 21.5067 7.47986 21.2523 7.51574 21.0012L8.63201 13.19H6.26094C4.69691 13.19 3.61007 11.634 4.14838 10.1659C4.14835 10.166 4.1484 10.1658 4.14838 10.1659L6.6285 3.39858Z" fill="black"/>
</svg>

<!-- This Source Code Form is subject to the terms of the Mozilla Public
   - License, v. 2.0. If a copy of the MPL was not distributed with this
   - file, You can obtain one at http://mozilla.org/MPL/2.0/. -->
<svg xmlns="http://www.w3.org/2000/svg" width="24" height="24" fill="none" viewBox="0 0 24 24">
    <path fill="#000" fill-rule="evenodd" d="M8.632 3.75c-.162 0-.305.1-.36.251l-2.48 6.767a.5.5 0 0 0 .469.672h3.38a.875.875 0 0 1 .866.999l-.987 6.91 8.647-8.881a.25.25 0 0 0-.18-.425h-5.2a.875.875 0 0 1-.812-1.2l1.763-4.406a.5.5 0 0 0-.464-.687zm-2.003-.351A2.13 2.13 0 0 1 8.631 2h4.642a2.25 2.25 0 0 1 2.09 3.085L14.08 8.294h3.908c1.77 0 2.666 2.128 1.433 3.395L9.639 21.735a.88.88 0 0 1-.627.265h-.63a.875.875 0 0 1-.866-.999l1.116-7.811H6.261a2.25 2.25 0 0 1-2.113-3.024z" clip-rule="evenodd" />
</svg>
